images/Nervos-logo.svg

<svg width="347" height="61" viewBox="0 0 347 61" fill="none" xmlns="http://www.w3.org/2000/svg">
<path d="M41.1501 2.6543V35.0239L0.130371 2.6543V58.0389H11.3609V25.67L52.38 58.0389V2.6543H41.1501Z" fill="white"/>
<path d="M63.2654 58.0389V2.6543H108.984V12.8176H75.0634V24.4506H108.984V34.6139H75.0634V47.8756H108.984V58.0389H63.2654Z" fill="white"/>
<path d="M193.366 58.0389L169.942 2.6543H183.596L200.611 45.7777L217.706 2.6543H230.9L207.474 58.0389H193.366Z" fill="white"/>
<path d="M333.517 17.8759C332.659 15.3795 331.012 13.2943 328.868 11.9919C326.797 10.796 323.919 10.1981 320.235 10.1981C316.047 10.1981 312.85 10.7579 310.642 11.8777C308.428 12.9913 307.316 14.6225 307.316 16.7533C307.202 18.5347 307.978 20.2455 309.349 21.2352C310.703 22.1944 313.175 22.9674 316.766 23.5543L327.613 25.3979C334.053 26.5129 338.775 28.4714 341.779 31.2736C344.78 34.0765 346.282 37.9306 346.284 42.836C346.284 48.3836 344.107 52.6883 339.753 55.75C335.4 58.8144 329.188 60.3467 321.119 60.3467C315.261 60.3467 310.404 59.6009 306.545 58.1092C302.682 56.6185 299.729 54.3518 297.685 51.309C295.644 48.268 294.427 44.4028 294.035 39.7134H305.918C306.409 43.4505 307.861 46.1849 310.271 47.9165C312.683 49.6452 316.299 50.511 321.12 50.5138C325.444 50.5138 328.709 49.8826 330.894 48.63C333.086 47.3836 334.182 45.5233 334.182 43.0734C334.242 41.2238 333.419 39.4711 332.004 38.4351C330.554 37.3133 328.248 36.5098 325.104 36.0343L316.243 34.6744C309.062 33.6093 303.811 31.6755 300.491 28.8728C297.172 26.0776 295.511 22.1443 295.509 17.0731C295.458 13.8224 296.51 10.6646 298.465 8.19868C300.43 5.69063 303.295 3.75653 307.059 2.39639C311.421 0.942387 315.968 0.253804 320.53 0.356724C327.712 0.356724 333.27 1.65112 337.206 4.23992C341.137 6.82202 343.72 10.8865 344.954 16.4335L333.517 17.8759Z" fill="white"/>
<path fill-rule="evenodd" clip-rule="evenodd" d="M285.903 46.152C288.421 41.642 289.68 36.3749 289.68 30.3508C289.683 24.1119 288.374 18.7383 285.754 14.2298C283.139 9.73028 279.314 6.14059 274.759 3.91144C270.046 1.53494 264.537 0.346684 258.234 0.346684C251.666 0.34438 246.004 1.58431 241.248 4.06649C236.696 6.34712 232.896 9.9966 230.331 14.5496C227.807 19.0514 226.545 24.3184 226.545 30.3508C226.548 36.59 227.859 41.9636 230.48 46.4718C233.093 50.9732 236.919 54.5632 241.475 56.7895C246.18 59.161 251.688 60.3467 258 60.3467C264.569 60.3467 270.231 59.109 274.986 56.6352C279.538 54.3546 283.338 50.7051 285.903 46.152ZM272.045 15.9506C275.356 19.3626 277.011 24.1627 277.011 30.3508C277.008 36.4813 275.353 41.2673 272.045 44.7088C268.737 48.1513 264.108 49.8725 258.156 49.8725C252.147 49.8672 247.489 48.1601 244.181 44.7511C240.876 41.339 239.224 36.539 239.224 30.3508C239.22 24.2125 240.873 19.4261 244.181 15.9915C247.494 12.5499 252.126 10.8291 258.078 10.8291C264.081 10.8254 268.737 12.5326 272.045 15.9506Z" fill="white"/>
<path fill-rule="evenodd" clip-rule="evenodd" d="M148.236 37.3238L159.494 58.0389H172.119L159.131 35.0749C162.453 33.6837 164.919 31.7449 166.531 29.2584C168.142 26.7733 168.948 23.6714 168.948 19.9528C168.948 8.42047 161.756 2.6543 147.371 2.6543H122.046V58.0389H133.156V37.3238H148.236ZM154.911 25.8807C153.107 27.1518 150.305 27.7873 146.506 27.7873H133.156V12.1974H146.654C150.549 12.1921 153.351 12.7854 155.059 13.9772C156.763 15.1669 157.616 17.1321 157.616 19.8729C157.616 22.6144 156.714 24.617 154.911 25.8807Z" fill="white"/>
</svg>

<svg xmlns="http://www.w3.org/2000/svg" width="347" height="61" fill="none"><path fill="#fff" d="M41.15 2.654v32.37L.13 2.654V58.04h11.23V25.67l41.02 32.369V2.654H41.15ZM63.265 58.039V2.654h45.719v10.164h-33.92V24.45h33.92v10.163h-33.92v13.262h33.92v10.163H63.265ZM193.366 58.039 169.942 2.654h13.654l17.015 43.124 17.095-43.124H230.9L207.474 58.04h-14.108ZM333.517 17.876c-.858-2.497-2.505-4.582-4.649-5.884-2.071-1.196-4.949-1.794-8.633-1.794-4.188 0-7.385.56-9.593 1.68-2.214 1.113-3.326 2.745-3.326 4.875-.114 1.782.662 3.492 2.033 4.482 1.354.96 3.826 1.732 7.417 2.32l10.847 1.843c6.44 1.115 11.162 3.073 14.166 5.876 3.001 2.803 4.503 6.657 4.505 11.562 0 5.548-2.177 9.852-6.531 12.914-4.353 3.064-10.565 4.597-18.634 4.597-5.858 0-10.715-.746-14.574-2.238-3.863-1.49-6.816-3.757-8.86-6.8-2.041-3.041-3.258-6.906-3.65-11.596h11.883c.491 3.737 1.943 6.472 4.353 8.203 2.412 1.73 6.028 2.595 10.849 2.598 4.324 0 7.589-.631 9.774-1.884 2.192-1.246 3.288-3.107 3.288-5.557.06-1.85-.763-3.602-2.178-4.638-1.45-1.122-3.756-1.925-6.9-2.4l-8.861-1.36c-7.181-1.066-12.432-3-15.752-5.802-3.319-2.795-4.98-6.729-4.982-11.8-.051-3.25 1.001-6.408 2.956-8.874 1.965-2.508 4.83-4.442 8.594-5.803A39.723 39.723 0 0 1 320.53.356c7.182 0 12.74 1.295 16.676 3.884 3.931 2.582 6.514 6.646 7.748 12.193l-11.437 1.443Z"/><path fill="#fff" fill-rule="evenodd" d="M285.903 46.152c2.518-4.51 3.777-9.777 3.777-15.801.003-6.24-1.306-11.613-3.926-16.121-2.615-4.5-6.44-8.09-10.995-10.319-4.713-2.376-10.222-3.564-16.525-3.564-6.568-.003-12.23 1.237-16.986 3.72-4.552 2.28-8.352 5.93-10.917 10.483-2.524 4.501-3.786 9.768-3.786 15.8.003 6.24 1.314 11.614 3.935 16.122 2.613 4.501 6.439 8.091 10.995 10.317 4.705 2.372 10.213 3.558 16.525 3.558 6.569 0 12.231-1.238 16.986-3.712 4.552-2.28 8.352-5.93 10.917-10.483Zm-13.858-30.201c3.311 3.412 4.966 8.212 4.966 14.4-.003 6.13-1.658 10.916-4.966 14.358-3.308 3.442-7.937 5.163-13.889 5.163-6.009-.005-10.667-1.712-13.975-5.12-3.305-3.413-4.957-8.213-4.957-14.401-.004-6.139 1.649-10.925 4.957-14.36 3.313-3.441 7.945-5.162 13.897-5.162 6.003-.004 10.659 1.704 13.967 5.122ZM148.236 37.324l11.258 20.715h12.625l-12.988-22.964c3.322-1.391 5.788-3.33 7.4-5.817 1.611-2.485 2.417-5.587 2.417-9.305 0-11.533-7.192-17.299-21.577-17.299h-25.325V58.04h11.11V37.324h15.08Zm6.675-11.443c-1.804 1.27-4.606 1.906-8.405 1.906h-13.35v-15.59h13.498c3.895-.005 6.697.588 8.405 1.78 1.704 1.19 2.557 3.155 2.557 5.896s-.902 4.744-2.705 6.008Z" clip-rule="evenodd"/></svg>
